X:118
T:Vals efter Römudden
R:Vals
Z:C-G Magnusson, 2008-09-28
O:Nössemark, Dalsland
S:efter Denis Emanuelsson, Nössemark
B:Svenska Låtar Dalsland nr 118
D:Skagerlind & Hansander - Låtar på Dal (1981). Spår A8.
M:3/4
L:1/8
Q:130
K:Am
{c}e>d | [B2E2] [c2E2] cA | ^G2 A2 [B2E2] | (A^G) AB ce | B2 z2 {c}e>d |
B2 c2 c>A | ^G2 A2 [B2-E2-] | [BE]c ed Bc | A4 :: ^cd | e2 g2 (^f<a) | e4 ^cd |
(e>f) ed (cB) | A^G A2 ^cd | e2 g2 (^f<a) | e4 ^cd | (e>f) ed Bc | [A4A4] :|

